X: 37825
T: Sonny's
R: mazurka
M: 3/4
K: Dmajor
|:DF "D" A2 AG|FA "D" d2 dA|BA "G" G2 GB|AG "A7" FG EF|
DF "D" A2 AG|FA "D" d2 dA|BA "G" G2 Gg|"A7" fe "D" d2 d2:|
|:Ad "D" f2 fa|gf "A7" e2 eg|fe "D" d2 df|ed "A7" cd Bc|
Ad "D" f2 fa|gf "A7" e2 eg|fe "D" d2 df|"A7" ec "D" d2 d2:|

